X: 141004
Q: "Slow."
M: C
L: 1/8
K: Am
(uAB) |\
vc3vc B2A2 | (uBe3) (d2B2) | vA3vA B2c2 | d2B2 HG2(AB) |\
c3c B2A2 | (Be3) e2d2 | B2{cB}A2 .A2.A2 | "^>"A6 :|\
uA2 |\
a3=g ^f2d2 | =g2^f2 e2d2 | =c2A2 =g2e2 | d2B2 HG2(uAB) |\
=c3c B2A2 | (Be3) e2d2 | B2{cB}A2 .A2.A2 | "^>"A6 |]


